X: 40956
T: Trip To Cullenstown, The
R: reel
M: 4/4
K: Gmajor
Bdde dBGA|B2 GB AGEG|Bdde dBGA|BAAG A2 GA|
BABd e2 dB|dedB AGEG|B2 GB AGEG|DGGF G3 A:|
Bd d2 ce e2|Bdde dBGA|Bd d2 edef|gedB A2 GA|
BABd e2 dB|dedB AGEG|B2 GB AGEG|DGGF G3 A:|

